X:41
T:Fire-Cross Song, The
T:An Crann-t\`ara
R:Jig
S:Simon Fraser Collection
N:No.215
O:Scottish
M:6/8
L:1/8
K:E_
B|G2G G>^FG|Gcc c2d|e2e e>de|dff f2b|
g2g gfe|f2f fed|c2d (c/d/e)c|BGG G2:|
G/F/|EGE DFD|Ccc c2d|ege dbB|dff f2b|
g2g gfe|f2f fed|c2d (c/d/e)c|BGG G2 G/F/|
EGE DFD|Ccc c2d|ege dbB|dff f2 E/F/|
GeG FdF|EcE Dfa|gfe dec|BGG G2||

